X: 02097
T: PAUL REVERE'S RIDE
C: Bob McQuillen 19 April '75
B: Bob's Note Book 1&2 #97
%R: jig
Z: 2019 John Chambers <jc:trillian.mit.edu>
M: 6/8
L: 1/8
K: G	% and Em
d \
| g2g dBd | gdB GBd | g2g dBd | cBc A2d |\
| g2g dBd | gdB GBd | efg dcB | AGF G2 :|
|: B \
| e2e BAB | cBA GFE | e2e Bcd cBA B2B |\
| e2e BAB | cBA GFE | ABc BAG | FED E2 :|
%%begintext align
%%endtext

%%sep 1 1 500

%%sep 1 1 500

